X: 24909
T: Mai's
R: jig
M: 6/8
K: Aminor
|:aeg dcB|c2B Ace|gde cBA|G2G Bcd|
e^fe ded|cAB c2A|B2B dBG|E^FG A3:|
|:GAB c2e|d2g ea^f|g^fg bge|d2B GBd|
e^fg a2b|gde cBA|B2B dBG|E^FG A3:|

